component-icons/svg/forms.svg

<?xml version="1.0" encoding="utf-8"?>
<!-- Generator: Adobe Illustrator 24.2.3, SVG Export Plug-In . SVG Version: 6.00 Build 0)  -->
<svg version="1.1" id="Layer_1" xmlns="http://www.w3.org/2000/svg" xmlns:xlink="http://www.w3.org/1999/xlink" x="0px" y="0px"
	 width="24px" height="24px" viewBox="0 0 24 24" enable-background="new 0 0 24 24" xml:space="preserve">
<path d="M1,18h20l2-2H1V18z M23,0H1v2h20L23,0z M1,24h10v-4H1V24z M13,24h10v-4H13V24z M1,6h20l2-2H1V6z M1,14h20l2-2H1V14z M1,10
	h20l2-2H1V10z"/>
</svg>

<svg id="Layer_1" data-name="Layer 1" xmlns="http://www.w3.org/2000/svg" viewBox="0 0 24 24">
  <defs>
    <style>
      .cls-1 {
        fill: gray;
      }
    </style>
  </defs>
  <title>forms</title>
  <path class="cls-1" d="M1,18H21l2-2H1ZM23,0H1V2H21ZM1,24H11V20H1Zm12,0H23V20H13ZM1,6H21l2-2H1Zm0,8H21l2-2H1Zm0-4H21l2-2H1Z"/>
</svg>
